Adwaita++/actions/symbolic/zoom-fit-best-symbolic.svg

<svg height="16" width="15.982" xmlns="http://www.w3.org/2000/svg">
  <path d="m3.188 2c-.664 0-1.188.549-1.188 1.219v9.562c0 .67.525 1.219 1.188 1.219h9.624c.663 0 1.188-.549 1.188-1.219v-9.561c0-.671-.525-1.22-1.188-1.22zm.812 2h3v2h-1v1h-2zm5 0h3v3h-2v-1h-1zm-5 5h2v1h1v2h-3zm6 0h2v3h-3v-2h1z" fill="#474747"/>
</svg>

<svg xmlns="http://www.w3.org/2000/svg" width="15.982" height="16">
    <path d="M3.188 2C2.524 2 2 2.549 2 3.219v9.562C2 13.451 2.525 14 3.188 14h9.624c.663 0 1.188-.549 1.188-1.219V3.22C14 2.549 13.475 2 12.812 2zM4 4h3v2H6v1H4zm5 0h3v3h-2V6H9zM4 9h2v1h1v2H4zm6 0h2v3H9v-2h1z" style="marker:none" color="#bebebe" overflow="visible" fill="#474747"/>
</svg>
